X: 28186
T: Mrs Summer #2
R: reel
M: 4/4
K: Dmajor
fa a2 afde|f2 df edBd|A2 FA ABde|fade fe e2|
fa a2 afde|fedf edBd|BAFB ABde|1 faeg fdde:|2 faeg fddc||
B2 GA Bdeg|f2 de faaf|g2 eg f2 df|egfd edcA|
B2 GA Bdeg|f2 de fa a2|bf f2 af f2|edeg fedc|
B2 GA Bdeg|f2 de faaf|g2 eg f2 df|egfd edcA|
BAGA Bdeg|fede faaf|bf f2 af f2|edeg fdde||

